X:1
T:Title
%%score { ( 1 4 ) | ( 2 3 ) }
L:1/8
Q:1/4=100
M:4/4
K:Eb
V:1 treble nm="Grand Piano"
V:4 treble 
V:2 bass 
V:3 bass 
V:1
 [B,EG]2 [B,GB]2 [B,FA]2 [B,DF]2 | [B,EG]2 [B,GB]2 [B,FA]2 [B,DF]2 | %2
w: Robert~Lowry * * *||
 [B,EG]2 [EGB]2 [EAc]2 [CFA][CF] | [G,B,E]2 .[F,B,D]2[K:treble] [G,B,E]4 | %4
w: ||
 [B,EG]2 [B,GB]2 [B,FA]2 [B,DF]2 | [B,EG]2 [B,GB]2 [B,FA]2 [B,DF]2 | [B,EG]2 [EGB]2 [EAc]2 [CFA]F | %7
w: |||
 z2 D2 z4 | [GB]2 [Ge]2 [Ge]2 [Fd]2 | [B,FA]2 [DAc]2 [Ac]2 [GB]2 | [GB]2 [Ge]2 [DFd]2 [EGc]2 | %11
w: ||||
 [DFB]2 .[CF=A]2 [B,DB]4 | [B,EG]2 [B,GB]2 [B,FA]2 [B,DF]2 | [B,EG]2 [B,GB]2 [B,FA]2 [B,DF]2 | %14
w: |||
 [B,EG]2 [EGB]2 [EAc]2 [CFA]F | z2 D2 z4 |] %16
w: ||
V:2
 E,2 E,2 B,,2 B,,2 | E,2 E,2 B,,2 B,,2 | E,2 E,2 A,,2 z A, | B,,2 z A, E,4 | E,2 E,2 B,,2 B,,2 | %5
 E,2 E,2 B,,2 B,,2 | E,2 E,2 A,,2 z [A,C] | [B,,G,B,]2 .[B,,F,B,]2 [E,G,B,]4 | %8
 [E,E]2 [E,B,]2 B,2 B,2 | B,,2 B,,2 [E,E]2 [E,E]2 | [E,E]2 [E,B,]2 B,,2 E,2 | F,2 z E B,,4 | %12
 E,2 E,2 B,,2 B,,2 | E,2 E,2 B,,2 B,,2 | E,2 E,2 A,,2 z [A,C] | [B,,G,B,]2 .[B,,F,B,]2 [E,G,B,]4 |] %16
V:3
 x8 | x8 | z4 z2 A,,2 | z2 B,,2 z4 | x8 | x8 | z4 z2 A,,2 | x8 | x8 | x8 | x8 | z2 F,2 z4 | x8 | %13
 x8 | z4 z2 A,,2 | x8 |] %16
V:4
 x8 | x8 | x8 | x4[K:treble] x4 | x8 | x8 | x8 | E2 z A, E4 | x8 | x8 | x8 | x8 | x8 | x8 | x8 | %15
 E2 z A, E4 |] %16

